svgs/thin/caravan-simple.svg

<svg xmlns="http://www.w3.org/2000/svg" viewBox="0 0 640 512"><!--! Font Awesome Pro 6.5.1 by @fontawesome - https://fontawesome.com License - https://fontawesome.com/license (Commercial License) Copyright 2023 Fonticons, Inc. --><path d="M80 48c-35.3 0-64 28.7-64 64V336c0 35.3 28.7 64 64 64H97.3c7.6-45.4 47.1-80 94.7-80s87.1 34.6 94.7 80l0 0H288 560V192c0-79.5-64.5-144-144-144H80zM96 416H80c-44.2 0-80-35.8-80-80V112C0 67.8 35.8 32 80 32H416c88.4 0 160 71.6 160 160V400l56 0c4.4 0 8 3.6 8 8s-3.6 8-8 8l-56 0H560 288c0 53-43 96-96 96s-96-43-96-96zM224 144H96c-8.8 0-16 7.2-16 16v64c0 8.8 7.2 16 16 16H224c8.8 0 16-7.2 16-16V160c0-8.8-7.2-16-16-16zM96 128H224c17.7 0 32 14.3 32 32v64c0 17.7-14.3 32-32 32H96c-17.7 0-32-14.3-32-32V160c0-17.7 14.3-32 32-32zm256 16c-8.8 0-16 7.2-16 16v64c0 8.8 7.2 16 16 16h64c8.8 0 16-7.2 16-16V160c0-8.8-7.2-16-16-16H352zm-32 16c0-17.7 14.3-32 32-32h64c17.7 0 32 14.3 32 32v64c0 17.7-14.3 32-32 32H352c-17.7 0-32-14.3-32-32V160zM272 416a80 80 0 1 0 -160 0 80 80 0 1 0 160 0z"/></svg>

<svg xmlns="http://www.w3.org/2000/svg" viewBox="0 0 640 512"><!--! Font Awesome Pro 6.1.1 by @fontawesome - https://fontawesome.com License - https://fontawesome.com/license (Commercial License) Copyright 2022 Fonticons, Inc. --><path d="M224 128C241.7 128 256 142.3 256 160V224C256 241.7 241.7 256 224 256H96C78.33 256 64 241.7 64 224V160C64 142.3 78.33 128 96 128H224zM224 144H96C87.16 144 80 151.2 80 160V224C80 232.8 87.16 240 96 240H224C232.8 240 240 232.8 240 224V160C240 151.2 232.8 144 224 144zM320 160C320 142.3 334.3 128 352 128H416C433.7 128 448 142.3 448 160V224C448 241.7 433.7 256 416 256H352C334.3 256 320 241.7 320 224V160zM336 160V224C336 232.8 343.2 240 352 240H416C424.8 240 432 232.8 432 224V160C432 151.2 424.8 144 416 144H352C343.2 144 336 151.2 336 160zM96 416H80C35.82 416 0 380.2 0 336V112C0 67.82 35.82 32 80 32H416C504.4 32 576 103.6 576 192V400H632C636.4 400 640 403.6 640 408C640 412.4 636.4 416 632 416H288C288 469 245 512 192 512C138.1 512 96 469 96 416zM16 112V336C16 371.3 44.65 400 80 400H97.33C104.9 354.6 144.4 320 192 320C239.6 320 279.1 354.6 286.7 400H560V192C560 112.5 495.5 48 416 48H80C44.65 48 16 76.65 16 112zM192 336C147.8 336 112 371.8 112 416C112 460.2 147.8 496 192 496C236.2 496 272 460.2 272 416C272 371.8 236.2 336 192 336z"/></svg>
